X:1
T:Title
%%score ( 1 2 ) ( 3 4 )
L:1/8
Q:1/4=110
M:4/4
K:Bb
V:1 treble nm="Grand Piano, Treble Clef"
V:2 treble 
V:3 bass nm="Choir Pad, Hordville, CMD"
V:4 bass 
V:1
 z4 z2 .B2 | [B,D][CE] [DF]2 [EG]2 [DF]2 | [FB]2 [Fd]2- [Fd][Fd] [Ec]2 | [Ec]2 [DB]6 | %4
 [FB]2 [EG]2- [EG][FA][GB][^FA] | [GB][EG] [DF]2- [DF][CE] [B,D]2 | [Fd]2 [Fc]2- [Fc][Fc] [=Ed]2 | %7
 [=Ec]2 F6 | F2 [Fe]2 [Fe]2 [Fe]2 | dc[Fd][DB] [B,D][EG] [DF]2 | F2 [EA]2- [EA][EG] [EF]2 | %11
 z2 G2 z4 | [DF]2 [FB]2 [FB]2 [Fc]2 | [Fd]2 [Gf]2- [Gf][Ge] [GB]2 | [Gc]2 [Fd]2- [Fd][DB] [Fd]2 | %15
 [Ec]2 [DB]6- | [DB]2 z2 z4 |] %17
V:2
 F2 [DB]2- [DB][DB]D-[DF] | x8 | x8 | x8 | x8 | x8 | x8 | x8 | x8 | F2 z2 z4 | x8 | %11
 [EG]2 D2- [DF]2 z2 | x8 | x8 | x8 | x8 | x8 |] %17
V:3
 F,2 [B,,F,]2- [B,,F,][B,,F,] [B,,F,]2 | [B,,F,]2 [B,,B,]2 [B,,B,]2 [B,,B,]2 | %2
 [D,B,]2 [F,B,]2- [F,B,][F,B,] [F,A,]2 | [F,A,]2 [B,,B,]6 | [B,,B,]2 [E,B,]2- [E,B,][E,B,]B,C | %5
 [E,B,]2 [B,,B,]2- [B,,B,][B,,B,] [B,,F,]2 | [B,,B,]2 [C,A,]2- [C,A,][C,A,] [C,B,]2 | %7
 [C,B,]2 [F,A,]6 | F,2 [F,A,]2 [F,A,]2 [F,A,]2 | [F,A,]2 [B,,B,]2 [B,,B,]2 [B,,B,]2 | %10
 [D,B,]2 [F,C]2- [F,C][F,B,] [F,A,]2 | [F,A,]2 [B,,B,]4 z2 | [B,,B,]2 [D,B,]2 [D,B,]2 [F,A,]2 | %13
 B,2 [E,B,]2- [E,B,][E,B,] [E,B,]2 | [=E,B,]2 [F,B,]2- [F,B,][F,B,] [F,B,]2 | [F,A,]2 [B,,B,]6- | %16
 [B,,B,]2 z2 z4 |] %17
V:4
 x8 | x8 | x8 | x8 | z4 z2 E,2 | x8 | x8 | x8 | x8 | x8 | x8 | x8 | x8 | x8 | x8 | x8 | x8 |] %17

